X:221
T:
R:polska
S:Från Gotlands fornsal.
O:Gotland
M:3/4
L:1/16
K:G
L[G,DBg]4 Lb4 Lg4|d2Bd c2Ac B4|g2g2 b2b2 g2g2|
d2Bd c2Ac B4|B2G2 D2G2 B2d2|d2cB LB4 Lc4|c2A2 D2F2 A2c2|
c2BA A4 B4::B6 d2 A2c2|B2b2 a2g2 f2g2|B6 d2 A2c2|B2b2 a2g2 f2g2|
Le4 g2fe d4|Lc4 e2dc B4|A2c2 B4 A2d2|D2ED G4 G,4:|

